X:1
T:Maid Of Holywell, The
M:4/4
R:Reel
K:D
|:dB|(3ABA FA B2dB|A2FA BEEB|A2FA BdAd|BdAG FDDB|
ADFA BdcB|A2FA BEEF|G3A Bdeg|1fdec d2:|2fdec d3||
e|:d2fd edBd|egfe dBAB|d2fd egfe|dBAG FDDA|
d2fd edBd|egfe dBAB|defg a3g|1f2eg fdd2:|2f2eg fd||
